images/post_box.svg

<?xml version="1.0" encoding="UTF-8" standalone="no"?>
<svg xmlns:dc="http://purl.org/dc/elements/1.1/" xmlns:cc="http://creativecommons.org/ns#" xmlns:rdf="http://www.w3.org/1999/02/22-rdf-syntax-ns#" xmlns:svg="http://www.w3.org/2000/svg" xmlns="http://www.w3.org/2000/svg" xmlns:sodipodi="http://sodipodi.sourceforge.net/DTD/sodipodi-0.dtd" xmlns:inkscape="http://www.inkscape.org/namespaces/inkscape" version="1.1" width="12" height="12" viewBox="0 0 12 12" id="svg2" sodipodi:docname="post_box.svg" inkscape:version="0.92.4 (5da689c313, 2019-01-14)">
  <sodipodi:namedview pagecolor="#ffffff" bordercolor="#666666" borderopacity="1" objecttolerance="10" gridtolerance="10" guidetolerance="10" inkscape:pageopacity="0" inkscape:pageshadow="2" inkscape:window-width="1881" inkscape:window-height="1051" id="namedview864" showgrid="false" inkscape:pagecheckerboard="true" inkscape:zoom="25.279067" inkscape:cx="10.598046" inkscape:cy="4.6542266" inkscape:window-x="0" inkscape:window-y="0" inkscape:window-maximized="1" inkscape:current-layer="svg2" />
  <metadata id="metadata8">
    <rdf:RDF>
      <cc:Work rdf:about="">
        <dc:format>image/svg+xml</dc:format>
        <dc:type rdf:resource="http://purl.org/dc/dcmitype/StillImage" />
        <dc:title></dc:title>
      </cc:Work>
    </rdf:RDF>
  </metadata>
  <defs id="defs6" />
  <path id="outline" d="M 0.99999985,0 C 0.45762681,0 -2.9305082e-7,0.4576271 -1.9e-7,0.9999999 L 0,2 C 1.0627117e-7,2.559322 0.48861696,3 1,3 V 1 H 11 V 3 C 11.511382,3 12,2.5142906 12,2 V 0.9999999 C 12,0.4576271 11.508475,0 11,0 Z M 7.4999865,11.987788 L 2,12 V 2 L 7.4777817,1.987813 L 4.4888915,6.9944615 Z M 10,12 L 8.9999828,11.984457 L 5.9888878,6.9911308 L 8.977778,1.984482 L 10,2 Z" inkscape:connector-curvature="0" style="fill:none;stroke:#ffffff;stroke-opacity:1;opacity:0.5;stroke-width:3;stroke-miterlimit:4;stroke-dasharray:none;stroke-linecap:round;stroke-linejoin:round" />
  <path d="M 0.99999985,0 C 0.45762681,0 -2.9305082e-7,0.4576271 -1.9e-7,0.9999999 L 0,2 c 1.0627117e-7,0.559322 0.48861696,1 1,1 l 0,-2 10,0 0,2 c 0.511382,0 1,-0.4857094 1,-1 L 12,0.9999999 C 12,0.4576271 11.508475,0 11,0 Z M 7.4999865,11.987788 2,12 2,2 7.4777817,1.987813 4.4888915,6.9944615 Z M 10,12 8.9999828,11.984457 5.9888878,6.9911308 8.977778,1.984482 10,2 Z" id="path4258" />
</svg>

<svg xmlns="http://www.w3.org/2000/svg" width="12" height="12">
    <path d="M1 0C.458 0 0 .458 0 1v1c0 .56.489 1 1 1V1h10v2c.511 0 1-.486 1-1V1c0-.542-.492-1-1-1zm6.5 11.988L2 12V2l5.478-.012-2.99 5.006zM10 12l-1-.016-3.011-4.993 2.989-5.007L10 2z" fill="none" stroke="#fff" opacity=".5" stroke-width="3" stroke-linecap="round" stroke-linejoin="round"/>
    <path d="M1 0C.458 0 0 .458 0 1v1c0 .56.489 1 1 1V1h10v2c.511 0 1-.486 1-1V1c0-.542-.492-1-1-1zm6.5 11.988L2 12V2l5.478-.012-2.99 5.006zM10 12l-1-.016-3.011-4.993 2.989-5.007L10 2z"/>
</svg>
